X: 984
T: The blackthorn stick
C: anon.
O: Ireland
B: Francis O'Neill: "The Dance Music of Ireland" (1907) no. 984
R: Long dance, set dance
Z: Transcribed by Frank Nordberg - http://www.musicaviva.com
F: http://www.musicaviva.com/abc/tunes/ireland/oneill-1001/oneill-1001-098
4.abc
M: 6/8
L: 1/8
K: G
d|BAG (E2G)|D2(D E)GG|G2D GAB|c2c BA(G|B)dB A2D|GAB c2c|BA(G B)dd|
(ed)(c B)AG|EGE DB,(D|E)GG G2D|GAB c2c|BA(G B)dd|(ed)(c B)AG|E2G D2(D|E)G
G G2|]
W:
W:
W: From Musica Viva - http://www.musicaviva.com
W: the Internet center for free sheet music downloads.


